svgs/sharp-light/signal-bars-good.svg

<svg xmlns="http://www.w3.org/2000/svg" viewBox="0 0 640 512"><!--! Font Awesome Pro 6.6.0 by @fontawesome - https://fontawesome.com License - https://fontawesome.com/license (Commercial License) Copyright 2024 Fonticons, Inc. --><path d="M416 160l0 320-32 0 0-320 32 0zm-32-32l-32 0 0 32 0 320 0 32 32 0 32 0 32 0 0-32 0-320 0-32-32 0-32 0zM256 288l0 192-32 0 0-192 32 0zm-32-32l-32 0 0 32 0 192 0 32 32 0 32 0 32 0 0-32 0-192 0-32-32 0-32 0zM64 416l32 0 0 64-32 0 0-64zM32 384l0 32 0 64 0 32 32 0 32 0 32 0 0-32 0-64 0-32-32 0-32 0-32 0z"/></svg>

<svg xmlns="http://www.w3.org/2000/svg" viewBox="0 0 640 512"><!--! Font Awesome Pro 6.4.0 by @fontawesome - https://fontawesome.com License - https://fontawesome.com/license (Commercial License) Copyright 2023 Fonticons, Inc. --><path d="M416 160V480H384V160h32zm-32-32H352v32V480v32h32 32 32V480 160 128H416 384zM256 288V480H224V288h32zm-32-32H192v32V480v32h32 32 32V480 288 256H256 224zM64 416H96v64H64V416zM32 384v32 64 32H64 96h32V480 416 384H96 64 32z"/></svg>
